assets/icons/admin-tooltip.svg

<svg viewBox="0 0 20 20" xmlns="http://www.w3.org/2000/svg"><path d="m10 0c-5.52 0-10 4.48-10 10s4.48 10 10 10 10-4.48 10-10-4.48-10-10-10zm0 15c-.55 0-1-.45-1-1v-4c0-.55.45-1 1-1s1 .45 1 1v4c0 .55-.45 1-1 1zm1-8h-2v-2h2z" fill="#5e637a"/></svg>

<svg width="20" height="20" viewBox="0 0 20 20" fill="none" xmlns="http://www.w3.org/2000/svg">
<path d="M10 0C4.48 0 0 4.48 0 10C0 15.52 4.48 20 10 20C15.52 20 20 15.52 20 10C20 4.48 15.52 0 10 0ZM10 15C9.45 15 9 14.55 9 14V10C9 9.45 9.45 9 10 9C10.55 9 11 9.45 11 10V14C11 14.55 10.55 15 10 15ZM11 7H9V5H11V7Z" fill="#5E637A"/>
</svg>
